X:13246
T:Plinn ton double
R:Plinn
C:trad
A:Bretagne
O:France
M:4/4
L:1/8
Q:1/4=180
K:C
|cA Be ed B2|cA BB A2A2:|
|:cA Be ed B2|eg ed e2 eg|ed ce dc B2|c2 Ac BB A2:||
